brandFactory_export/3.Masa/Atencion al cliente_Ayuda_3Masa.svg

<?xml version="1.0" encoding="UTF-8"?>
<svg width="24px" height="24px" viewBox="0 0 24 24" version="1.1" xmlns="http://www.w3.org/2000/svg" xmlns:xlink="http://www.w3.org/1999/xlink">
    <title>3.Masa/Atencion al cliente_Ayuda_3Masa</title>
    <g id="Symbols" stroke="none" stroke-width="1" fill="none" fill-rule="evenodd">
        <g id="3.Masa/Atencion-al-cliente_Ayuda_3Masa" fill="#5CB615" fill-rule="nonzero">
            <path d="M21.610084,-9.48201192e-06 L13.7109244,-9.48201192e-06 C12.6084034,-0.00336134454 11.7109244,0.887394958 11.707563,1.98991597 L11.707563,6.83361345 C11.707563,7.97647059 12.5243697,8.83697479 13.6067227,8.83697479 L14.2756303,8.83697479 L14.2756303,10.497479 C14.2756303,10.9714286 14.1747899,11.4252101 14.6285714,11.4991597 C15.0823529,11.5731092 15.4386555,11.0957983 15.7109244,10.7697479 C15.9831933,10.4436975 16.7495798,9.66386555 17.4655462,8.83697479 L21.610084,8.84705882 C22.7159664,8.84705882 23.610084,7.94957983 23.6134454,6.84369748 L23.6134454,2.00336134 C23.610084,0.897478992 22.7159664,-9.48201192e-06 21.610084,-9.48201192e-06 Z M17.8655462,7.53613445 C17.5159664,7.53613445 17.2336134,7.25378151 17.2336134,6.90420168 C17.2336134,6.55462185 17.5159664,6.27226891 17.8655462,6.27226891 C18.2151261,6.27226891 18.497479,6.55462185 18.497479,6.90420168 C18.497479,7.25378151 18.2117647,7.53613445 17.8655462,7.53613445 Z M18.9243697,4.19159664 C18.8,4.31596639 18.4638655,4.54117647 18.4638655,4.81344538 L18.4638655,5.06218487 C18.4638655,5.40168067 18.2016807,5.67731092 17.8621849,5.67731092 C17.5226891,5.67731092 17.2605042,5.40168067 17.2605042,5.06218487 L17.2605042,4.81344538 C17.2605042,4.16806723 17.6806723,3.79159664 17.9630252,3.51932773 C18.0739496,3.41176471 18.3529412,3.23361345 18.3529412,2.97478992 C18.3529412,2.81008403 18.2588235,2.45378151 17.8588235,2.45378151 C17.4588235,2.45378151 17.2571429,2.77647059 17.2571429,2.96806723 C17.2638655,3.30084034 17.0016807,3.57647059 16.6722689,3.58319328 C16.3394958,3.58991597 16.0638655,3.32773109 16.0571429,2.99831933 L16.0571429,2.97142857 C16.0571429,1.96638655 16.7563025,1.31428571 17.8588235,1.31428571 C18.8907563,1.31428571 19.5831933,2.17478992 19.5831933,2.97815126 C19.589916,3.6605042 19.2201681,3.89579832 18.9243697,4.19159664 L18.9243697,4.19159664 Z M7.75798319,16.2084034 C9.11932773,16.2084034 10.1747899,15.8218487 10.8941176,15.0588235 C11.5731092,14.3394958 11.9193277,13.3243697 11.9193277,12.0436975 C11.9193277,10.7630252 11.5731092,9.7512605 10.8941176,9.02857143 C10.1747899,8.26554622 9.11932773,7.8789916 7.75798319,7.8789916 C6.39663866,7.8789916 5.34117647,8.26554622 4.62184874,9.02857143 C3.94285714,9.74789916 3.59663866,10.7630252 3.59663866,12.0436975 C3.59663866,13.3243697 3.94285714,14.3361345 4.62184874,15.0588235 C5.34117647,15.8218487 6.39663866,16.2084034 7.75798319,16.2084034 Z M10.8907563,17.3915966 L4.62521008,17.3915966 C3.11260504,17.3915966 1.94957983,17.7882353 1.17310924,18.5747899 C0.396638655,19.3613445 0,20.5243697 0,22.0436975 L0,23.2941176 C0,23.4789916 0.151260504,23.6302521 0.336134454,23.6302521 L15.1798319,23.6302521 C15.3647059,23.6302521 15.5159664,23.4789916 15.5159664,23.2941176 L15.5159664,22.0436975 C15.5159664,20.5243697 15.1226891,19.3546218 14.3428571,18.5714286 C13.5630252,17.7882353 12.4033613,17.3915966 10.8907563,17.3915966 Z" id="Atencion-al-cliente_Ayuda_3Masa"></path>
        </g>
    </g>
</svg>

<svg width="24" height="24" viewBox="0 0 24 24" xmlns="http://www.w3.org/2000/svg"><path d="M21.61 0h-7.9a1.997 1.997 0 00-2.002 1.99v4.844c0 1.142.816 2.003 1.899 2.003h.669v1.66c0 .474-.101.928.353 1.002.453.074.81-.403 1.082-.73.272-.325 1.039-1.105 1.755-1.932l4.144.01c1.106 0 2-.897 2.003-2.003v-4.84A2.006 2.006 0 0021.61 0zm-3.744 7.536a.631.631 0 11-.002-1.262.631.631 0 01.002 1.262zm1.058-3.344c-.124.124-.46.35-.46.621v.25c0 .339-.262.614-.602.614a.604.604 0 01-.601-.615v-.249c0-.645.42-1.021.702-1.294.11-.107.39-.285.39-.544 0-.165-.094-.521-.494-.521s-.602.322-.602.514a.6.6 0 01-1.2.03v-.027c0-1.005.7-1.657 1.802-1.657 1.032 0 1.724.86 1.724 1.664.007.683-.363.918-.659 1.214zM7.758 16.208c1.361 0 2.417-.386 3.136-1.15.68-.719 1.025-1.734 1.025-3.014 0-1.281-.346-2.293-1.025-3.015-.72-.763-1.775-1.15-3.136-1.15-1.361 0-2.417.387-3.136 1.15-.68.719-1.025 1.734-1.025 3.015 0 1.28.346 2.292 1.025 3.015.72.763 1.775 1.15 3.136 1.15zm3.133 1.184H4.625c-1.512 0-2.675.396-3.452 1.183C.397 19.36 0 20.525 0 22.044v1.25c0 .185.151.336.336.336H15.18a.337.337 0 00.336-.336v-1.25c0-1.52-.393-2.69-1.173-3.473-.78-.783-1.94-1.18-3.452-1.18z" fill="#5CB615" fill-rule="nonzero"/></svg>
